assets/Satellite/Flat/satellite_flat.svg

<svg width="32" height="32" viewBox="0 0 32 32" fill="none" xmlns="http://www.w3.org/2000/svg">
<path d="M14.3675 5.87431L10.6615 3.30015C10.2652 3.02489 9.72534 3.12861 9.44275 3.51981L1.77125 14.5646C1.496 14.9609 1.59462 15.5081 1.99091 15.7833L5.69698 18.3575C6.09327 18.6328 6.64046 18.5341 6.91571 18.1378L14.5872 7.09304C14.8625 6.69675 14.7638 6.14956 14.3675 5.87431ZM16.6809 25.9761L20.3869 28.5502C20.7832 28.8255 21.3253 28.7342 21.6006 28.3379L29.272 17.2931C29.5473 16.8968 29.4487 16.3496 29.0524 16.0744L25.3463 13.5002C24.95 13.225 24.4028 13.3236 24.1276 13.7199L16.4612 24.7573C16.1859 25.1536 16.2846 25.7008 16.6809 25.9761Z" fill="#635994"/>
<path d="M21.4869 12.9951L19.3688 10.6316L16.2031 9.32501L15.1836 10.7928L17.5195 13.2275L20.4675 14.4628L21.4869 12.9951Z" fill="#998EA4"/>
<path d="M12.4766 13.2646L11.0088 12.2451L10.4991 12.979L11.9668 13.9985L12.4766 13.2646ZM19.0888 17.8571L20.5566 18.8765L20.0468 19.6104L18.5791 18.5909L19.0888 17.8571ZM13.5848 19.4848L12.8509 18.9751L11.3217 21.1767L12.0556 21.6865L13.5848 19.4848ZM9.29531 24.1097L10.0365 24.6246L8.50732 26.8262L7.76611 26.3114L9.29531 24.1097Z" fill="#1C1C1C"/>
<path d="M12.5996 6.82217L10.3979 5.29297L8.86874 7.49459L11.0704 9.02379L12.5996 6.82217ZM7.84939 8.96277L10.051 10.492L8.52181 12.6936L6.32019 11.1644L7.84939 8.96277ZM7.50231 14.1613L5.30069 12.6321L3.77148 14.8337L5.97311 16.3629L7.50231 14.1613ZM25.0828 15.4929L27.2844 17.0221L25.7552 19.2237L23.5536 17.6945L25.0828 15.4929ZM22.5342 19.1624L24.7358 20.6916L23.2066 22.8932L21.005 21.364L22.5342 19.1624ZM22.1872 24.3606L19.9855 22.8314L18.4563 25.033L20.658 26.5622L22.1872 24.3606Z" fill="#BCA4EB"/>
<path d="M16.1371 9.27938L21.5458 13.0361C21.876 13.2655 22.3311 13.1899 22.5531 12.8546L23.2514 11.8492C23.4808 11.5189 23.4001 11.0712 23.0699 10.8418L17.6612 7.0851C17.331 6.85572 16.8833 6.9364 16.6539 7.26665L15.9556 8.27206C15.7262 8.6023 15.8069 9.05 16.1371 9.27938ZM8.98669 27.7029C8.56441 28.3108 7.72923 28.4613 7.12127 28.0391C6.51331 27.6168 6.36279 26.7816 6.78506 26.1737C7.20734 25.5657 8.04251 25.4152 8.65048 25.8374C9.25844 26.2597 9.40896 27.0949 8.98669 27.7029ZM12.3559 26.2356L6.9766 22.4993C6.40418 22.1017 6.3806 21.2585 6.9266 20.8327C8.43104 19.6691 10.5674 19.5537 12.2112 20.6955C13.8551 21.8373 14.4928 23.8795 13.9278 25.6955C13.7216 26.3683 12.9283 26.6332 12.3559 26.2356ZM10.5301 17.3519L15.9387 21.1087C16.269 21.3381 16.724 21.2625 16.946 20.9271L20.7028 15.5185C20.9322 15.1882 20.8515 14.7405 20.5212 14.5111L15.1126 10.7544C14.7823 10.525 14.3346 10.6057 14.1053 10.936L10.3485 16.3446C10.1191 16.6749 10.1998 17.1226 10.5301 17.3519Z" fill="#B4ACBC"/>
</svg>

<svg xmlns="http://www.w3.org/2000/svg" width="32" height="32" fill="none"><path fill="#635994" d="M14.367 5.874 10.662 3.3a.883.883 0 0 0-1.218.22L1.77 14.565a.877.877 0 0 0 .22 1.218l3.706 2.575a.877.877 0 0 0 1.219-.22l7.671-11.045a.877.877 0 0 0-.22-1.219Zm2.314 20.102 3.706 2.574a.87.87 0 0 0 1.214-.212l7.671-11.045a.877.877 0 0 0-.22-1.219L25.346 13.5a.877.877 0 0 0-1.218.22L16.46 24.757a.877.877 0 0 0 .22 1.22Z"/><path fill="#998EA4" d="m21.487 12.995-2.118-2.363-3.166-1.307-1.02 1.468 2.337 2.434 2.948 1.236 1.019-1.468Z"/><path fill="#1C1C1C" d="m12.477 13.265-1.468-1.02-.51.734 1.468 1.02.51-.734Zm6.612 4.592 1.468 1.02-.51.733-1.468-1.02.51-.733Zm-5.504 1.628-.734-.51-1.53 2.202.735.51 1.529-2.202Zm-4.29 4.625.742.515-1.53 2.201-.74-.515 1.528-2.201Z"/><path fill="#BCA4EB" d="m12.6 6.822-2.202-1.529-1.53 2.202 2.202 1.529 1.53-2.202Zm-4.75 2.14 2.201 1.53-1.53 2.202-2.2-1.53 1.528-2.201Zm-.348 5.2-2.201-1.53-1.53 2.202 2.202 1.529 1.53-2.202Zm17.58 1.33 2.202 1.53-1.529 2.202-2.201-1.53 1.529-2.201Zm-2.548 3.67 2.202 1.53-1.53 2.201-2.201-1.529 1.53-2.202Zm-.347 5.199-2.202-1.53-1.529 2.202 2.202 1.53 1.53-2.202Z"/><path fill="#B4ACBC" d="m16.137 9.28 5.409 3.756c.33.23.785.154 1.007-.181l.698-1.006a.72.72 0 0 0-.181-1.007L17.66 7.085a.72.72 0 0 0-1.007.182l-.698 1.005a.72.72 0 0 0 .181 1.007Zm-7.15 18.423a1.34 1.34 0 1 1-2.202-1.53 1.34 1.34 0 0 1 2.202 1.53Zm3.369-1.467-5.38-3.737a1.038 1.038 0 0 1-.05-1.666 4.468 4.468 0 0 1 7.002 4.863c-.206.672-1 .937-1.572.54Zm-1.826-8.884 5.409 3.757c.33.23.785.153 1.007-.182l3.757-5.409a.72.72 0 0 0-.182-1.007l-5.408-3.757a.72.72 0 0 0-1.008.182l-3.757 5.409a.72.72 0 0 0 .182 1.007Z"/></svg>
